X: 4353
T: Bantering Billy
N: Pub: J. Walsh, London, 1748
Z: 2012 John Chambers <jc:trillian.mit.edu>
M: 2/4
L: 1/8
K: A
%
V: 1
|: AA2c | B2 A/B/c/d/ | ee2d | cBAG | AA2c | B2a2 | ((3gfe) f^d | e4 :|
|: ee2f | dd2e | (3cde dc | B2E2 | AA2c | BB2d | ((3cBA) BG | A2A,2 :|
%
V: 2 clef=bass middle=d
|: c'2a2 | g2a2 | c'c'2b | a2e2 | c'2a2 | g2a2 | b2B2 | d2D2 :|
|: c'2a2 | b2g2 | a2d2 | e2E2 | c'2a2 | g2e2 | a2e2 | a2A2 :|
%%begintext align
The 1st Man cast off into the 2d Man's Place, his Partner following .|
the Wo. casts up, the Man following :|
Hands round four .|
cast off and turn :|:
%%endtext

%%sep 1 1 500
%%sep 1 1 500

